X:1
T:Reading
%%score 1 2 3
L:1/8
M:4/4
K:C
V:1 treble nm="Soprano" snm="S."
V:2 treble-8 nm="Tenor" snm="T."
V:3 bass nm="Bass" snm="B."
V:1
 c2 (cd/e/) (dB)(AG) | A2 (f<A) G2 (e<G) | F2 (d<F) (EG)(cG) | (FE)(DC) G4 | c2 (cd/e/) (dB)(AG) | %5
 A2 (f<A) G2 (e<G) | F2 (d<F) (EG)(cG) | (FE)(EC) G4 | d2 (de/f/) (ed) c2 | G2 (GA/_B/) (AG) F2 | %10
 A2 (AB/c/) (BA) G2 | d2 (de/f/) (ed) c2 | (G2 B2) c4 |] %13
V:2
 e2 (ef/g/) g2 g2 | f2 f2 e2 e2 | d2 d2 c2 E2 | (AG)(Bc) B4 | e2 (ef/g/) g2 g2 | f2 f2 e2 e2 | %6
 d2 d2 c2 E2 | (AG)(Bc) B4 | B2 (Bc/d/) (cB) c2 | E2 (EF/G/) (FE) F2 | F2 (FG/A/) (GF) G2 | %11
 B2 (Bc/d/) (cG) E2 | (D2 GF) E4 |] %13
V:3
 C,2 C,2 G,2 E,2 | F,2 D,2 E,2 C,2 | D,2 B,,2 C,2 C,2 | (F,E,)(D,C,) G,,4 | C,2 C,2 G,2 E,2 | %5
 F,2 D,2 E,2 C,2 | D,2 B,,2 C,2 C,2 | (F,E,)(D,C,) G,,4 | G,2 G,2 C,2 C,2 | C,2 C,2 F,2 F,2 | %10
 D,2 D,2 G,2 G,2 | G,2 G,2 C,2 C,2 | G,,4 C,4 |] %13

